src/img/logo-text.svg

<svg width="130" height="47" viewBox="0 0 130 47" fill="none" xmlns="http://www.w3.org/2000/svg">
<path d="M0.78125 18V0.9375H5.59766C7.08203 0.9375 8.39453 1.26562 9.53516 1.92188C10.6758 2.57812 11.5547 3.51172 12.1719 4.72266C12.7969 5.93359 13.1133 7.32422 13.1211 8.89453V9.98438C13.1211 11.5938 12.8086 13.0039 12.1836 14.2148C11.5664 15.4258 10.6797 16.3555 9.52344 17.0039C8.375 17.6523 7.03516 17.9844 5.50391 18H0.78125ZM3.03125 2.78906V16.1602H5.39844C7.13281 16.1602 8.48047 15.6211 9.44141 14.543C10.4102 13.4648 10.8945 11.9297 10.8945 9.9375V8.94141C10.8945 7.00391 10.4375 5.5 9.52344 4.42969C8.61719 3.35156 7.32812 2.80469 5.65625 2.78906H3.03125ZM22.7891 11.0977H18.7812V18H16.5195V0.9375H22.168C24.0898 0.9375 25.5664 1.375 26.5977 2.25C27.6367 3.125 28.1562 4.39844 28.1562 6.07031C28.1562 7.13281 27.8672 8.05859 27.2891 8.84766C26.7188 9.63672 25.9219 10.2266 24.8984 10.6172L28.9062 17.8594V18H26.4922L22.7891 11.0977ZM18.7812 9.25781H22.2383C23.3555 9.25781 24.2422 8.96875 24.8984 8.39062C25.5625 7.8125 25.8945 7.03906 25.8945 6.07031C25.8945 5.01562 25.5781 4.20703 24.9453 3.64453C24.3203 3.08203 23.4141 2.79688 22.2266 2.78906H18.7812V9.25781ZM40.9648 10.1133H33.5703V16.1602H42.1602V18H31.3203V0.9375H42.043V2.78906H33.5703V8.27344H40.9648V10.1133ZM54.3828 13.5469H47.2344L45.6289 18H43.3086L49.8242 0.9375H51.793L58.3203 18H56.0117L54.3828 13.5469ZM47.9141 11.6953H53.7148L50.8086 3.71484L47.9141 11.6953ZM63.5234 0.9375L69.1016 14.8594L74.6797 0.9375H77.5977V18H75.3477V11.3555L75.5586 4.18359L69.957 18H68.2344L62.6445 4.21875L62.8672 11.3555V18H60.6172V0.9375H63.5234ZM85.9062 10.0664L83.8203 12.2344V18H81.5703V0.9375H83.8203V9.375L91.4023 0.9375H94.1211L87.4062 8.47266L94.6484 18H91.9531L85.9062 10.0664ZM106.039 13.5469H98.8906L97.2852 18H94.9648L101.48 0.9375H103.449L109.977 18H107.668L106.039 13.5469ZM99.5703 11.6953H105.371L102.465 3.71484L99.5703 11.6953ZM115.18 0.9375L120.758 14.8594L126.336 0.9375H129.254V18H127.004V11.3555L127.215 4.18359L121.613 18H119.891L114.301 4.21875L114.523 11.3555V18H112.273V0.9375H115.18Z" fill="#275553"/>
<path d="M14.1954 31.086H8.711V46.2969H6.4727V31.086H1V29.2344H14.1954V31.086ZM29.5235 38.3164C29.5235 39.9883 29.2422 41.4492 28.6797 42.6992C28.1172 43.9414 27.3204 44.8907 26.2891 45.5469C25.2579 46.2031 24.0547 46.5313 22.6797 46.5313C21.336 46.5313 20.1446 46.2031 19.1055 45.5469C18.0665 44.8828 17.2579 43.9414 16.6797 42.7227C16.1094 41.4961 15.8165 40.0781 15.8008 38.4688V37.2383C15.8008 35.5977 16.086 34.1485 16.6563 32.8907C17.2266 31.6328 18.0313 30.6719 19.0704 30.0078C20.1172 29.336 21.3125 29 22.6563 29C24.0235 29 25.2266 29.3321 26.2657 29.9961C27.3125 30.6524 28.1172 31.6094 28.6797 32.8672C29.2422 34.1172 29.5235 35.5742 29.5235 37.2383V38.3164ZM27.2852 37.2149C27.2852 35.1914 26.8789 33.6407 26.0665 32.5625C25.2539 31.4766 24.1172 30.9336 22.6563 30.9336C21.2344 30.9336 20.1133 31.4766 19.293 32.5625C18.4805 33.6407 18.0625 35.1407 18.0391 37.0625V38.3164C18.0391 40.2774 18.4493 41.8203 19.2696 42.9453C20.0977 44.0625 21.2344 44.6211 22.6797 44.6211C24.1329 44.6211 25.2579 44.0938 26.0547 43.0391C26.8516 41.9766 27.2618 40.4571 27.2852 38.4805V37.2149ZM44.9102 29.2344V40.836C44.9024 42.4453 44.3946 43.7617 43.3868 44.7852C42.3868 45.8086 41.0274 46.3828 39.3086 46.5078L38.711 46.5313C36.8438 46.5313 35.3555 46.0274 34.2461 45.0196C33.1368 44.0117 32.5743 42.625 32.5586 40.8594V29.2344H34.7852V40.7891C34.7852 42.0235 35.125 42.9844 35.8047 43.6719C36.4844 44.3516 37.4532 44.6914 38.711 44.6914C39.9844 44.6914 40.9571 44.3516 41.6289 43.6719C42.3086 42.9922 42.6485 42.0352 42.6485 40.8008V29.2344H44.9102ZM54.7188 39.3946H50.711V46.2969H48.4493V29.2344H54.0977C56.0196 29.2344 57.4961 29.6719 58.5274 30.5469C59.5665 31.4219 60.086 32.6953 60.086 34.3672C60.086 35.4297 59.7969 36.3555 59.2188 37.1446C58.6485 37.9336 57.8516 38.5235 56.8282 38.9141L60.836 46.1563V46.2969H58.4219L54.7188 39.3946ZM50.711 37.5547H54.168C55.2852 37.5547 56.1719 37.2657 56.8282 36.6875C57.4922 36.1094 57.8243 35.336 57.8243 34.3672C57.8243 33.3125 57.5079 32.5039 56.875 31.9414C56.25 31.3789 55.3438 31.0938 54.1563 31.086H50.711V37.5547Z" fill="#F47648"/>
</svg>

<svg class="logo__text" width="130" height="47" fill="none" xmlns="http://www.w3.org/2000/svg">
  <path class="logo__text-dreamkam" d="M.781 18V.937h4.817c1.484 0 2.797.329 3.937.985 1.14.656 2.02 1.59 2.637 2.8.625 1.212.941 2.602.95 4.173v1.09c0 1.609-.313 3.019-.938 4.23-.618 1.21-1.504 2.14-2.66 2.789-1.149.648-2.489.98-4.02.996H.78zm2.25-15.21v13.37h2.367c1.735 0 3.082-.539 4.043-1.617.97-1.078 1.454-2.613 1.454-4.605V8.94c0-1.937-.457-3.441-1.372-4.511-.906-1.078-2.195-1.625-3.867-1.64H3.031zm19.758 8.308h-4.008V18H16.52V.937h5.648c1.922 0 3.398.438 4.43 1.313 1.039.875 1.558 2.148 1.558 3.82 0 1.063-.289 1.989-.867 2.778-.57.789-1.367 1.379-2.39 1.77l4.007 7.241V18h-2.414l-3.703-6.902zm-4.008-1.84h3.457c1.117 0 2.004-.29 2.66-.867.665-.579.997-1.352.997-2.32 0-1.055-.317-1.864-.95-2.426-.625-.563-1.53-.848-2.718-.856H18.78v6.469zm22.184.855H33.57v6.047h8.59V18H31.32V.937h10.723V2.79H33.57v5.484h7.395v1.84zm13.418 3.434h-7.149L45.63 18h-2.32L49.824.937h1.969L58.32 18h-2.308l-1.63-4.453zm-6.469-1.852h5.8l-2.905-7.98-2.895 7.98zM63.524.937l5.578 13.922L74.68.938h2.918V18h-2.25v-6.645l.21-7.171L69.958 18h-1.723l-5.59-13.781.223 7.136V18h-2.25V.937h2.906zm22.382 9.13l-2.086 2.167V18h-2.25V.937h2.25v8.438L91.402.937h2.72l-6.716 7.536L94.648 18h-2.695l-6.047-7.934zm20.133 3.48h-7.148L97.285 18h-2.32L101.48.937h1.969L109.977 18h-2.309l-1.629-4.453zm-6.469-1.852h5.801l-2.906-7.98-2.895 7.98zM115.18.937l5.578 13.922L126.336.938h2.918V18h-2.25v-6.645l.211-7.171L121.613 18h-1.722l-5.59-13.781.222 7.136V18h-2.25V.937h2.907z" fill="#275553"/>
  <path class="logo__text-tour" d="M14.195 31.086H8.711v15.21H6.473v-15.21H1v-1.852h13.195v1.852zm15.328 7.23c0 1.672-.28 3.133-.843 4.383-.563 1.242-1.36 2.192-2.39 2.848-1.032.656-2.235.984-3.61.984-1.344 0-2.535-.328-3.575-.984-1.038-.664-1.847-1.606-2.425-2.824-.57-1.227-.864-2.645-.88-4.254v-1.23c0-1.641.286-3.09.856-4.348.57-1.258 1.375-2.22 2.414-2.883C20.117 29.336 21.312 29 22.656 29c1.367 0 2.57.332 3.61.996 1.047.656 1.851 1.613 2.414 2.871.562 1.25.843 2.707.843 4.371v1.078zm-2.238-1.101c0-2.024-.406-3.574-1.218-4.653-.813-1.085-1.95-1.628-3.41-1.628-1.423 0-2.544.543-3.364 1.628-.813 1.079-1.23 2.579-1.254 4.5v1.254c0 1.961.41 3.504 1.23 4.63.829 1.117 1.965 1.675 3.41 1.675 1.454 0 2.579-.527 3.376-1.582.797-1.062 1.207-2.582 1.23-4.559v-1.265zm17.625-7.98v11.601c-.008 1.61-.515 2.926-1.523 3.95-1 1.023-2.36 1.597-4.078 1.722l-.598.023c-1.867 0-3.355-.504-4.465-1.511-1.11-1.008-1.672-2.395-1.687-4.16V29.233h2.226V40.79c0 1.234.34 2.195 1.02 2.883.68.68 1.648 1.02 2.906 1.02 1.273 0 2.246-.34 2.918-1.02.68-.68 1.02-1.637 1.02-2.871V29.234h2.261zm9.809 10.16H50.71v6.902h-2.262V29.234h5.649c1.922 0 3.398.438 4.43 1.313 1.038.875 1.558 2.148 1.558 3.82 0 1.063-.29 1.989-.867 2.778-.57.789-1.367 1.378-2.39 1.77l4.007 7.241v.14h-2.414l-3.703-6.901zm-4.008-1.84h3.457c1.117 0 2.004-.29 2.66-.867.664-.579.996-1.352.996-2.32 0-1.056-.316-1.864-.949-2.427-.625-.562-1.531-.847-2.719-.855h-3.445v6.469z" fill="#F47648"/>
</svg>
